X:1
T:Laus Tibi, Christe, CMD
T:Laus Tibi, Christe, CMD
T:Gerard Francis Cobb (1834-1904)
T:Public Domain Courtesy of the Cyber Hymnal™
C:Gerard Francis Cobb (1834-1904)
Z:Public Domain
Z:Courtesy of the Cyber Hymnal™
%%score ( 1 2 ) ( 3 4 )
L:1/8
Q:1/4=112
M:4/4
K:F
V:1 treble 
V:2 treble 
V:3 bass 
V:4 bass 
V:1
 C2 | [CF]2 (DE) [CF]2 ([DF][EG]) | [FA]2 ([DF][EG]) [FA]2 ([FA][GB]) | %3
 [Ac]2 [Ac]2 [Ac]2 ([FA][GB]) | [Ac]6 [Ac]2 | [Ac]2 ([GB][^FA]) [GB]2 [Ac]2 | %6
 [GB]2 ([FA][EG]) [FA]2 [FA]2 | [DG]2 [CG]2 G2 [Ee]2 | ([Fd]4 [Ec]2) ([_Ac][B_d]) | %9
 [c_e]2 [ce]2 [ce]2 (_A[_EB]) | [_Ec]2 [_Ac]2 [Ac]2 (A[GB]) | [_Ac]2 [Ac]2 [Gc]2 [Fd]2 | %12
 [Ec]6 ([FA][GB]) | [Ac]2 [Ac]2 [Ac]2 (F[CG]) | [CA]2 [FA]2 [FA]2 (F[EG]) | [FA]2 F2 [CF]2 [EG]2 | %16
 F6 |] %17
V:2
 C2 | x2 D2 x4 | x8 | x8 | x8 | x8 | x8 | x4 (GF) x2 | x8 | x6 _A x | x6 _A x | x8 | x8 | x6 F x | %14
 x6 F x | x2 F2 x4 | F6 |] %17
V:3
 [G,B,]2 | [F,A,]2 B,2 [A,C]2 [G,B,]2 | [F,A,]2 [B,D]2 [A,C]2 [G,B,]2 | %3
 [F,A,]2 ([F,A,][G,B,]) [A,C]2 [C,C]2 | [F,C]6 [F,C]2 | [E,C]2 [C,C]2 [E,C]2 [C,C]2 | %6
 [F,C]2 [C,C]2 (CE) (DC) | =B,2 (G,A,) [D,B,]2 C2 | (C2 =B,2) C2 _A,2 | %9
 _A,2 [A,C][B,_D] [C_E]2 (CE) | [_A,_E]2 E2 [C=E]2 [CE]2 | [F,F]2 (_A,B,) [E,C]2 (C=B,) | %12
 C6 (A,G,) | F,2 (A,B,) [F,C]2 (A,C) | [F,F]2 [F,C]2 [E,^C]2 [E,C]2 | %15
 [D,D]2 ([F,A,][G,B,]) [A,C]2 [C,B,]2 | [F,A,]6 |] %17
V:4
 x2 | x2 B,2 x4 | x8 | x8 | x8 | x8 | x4 F,2 F,2 | (G,F,) E,2 x (C,E,) x | G,4 C2 _A,2 | %9
 _A,2 x2 _E,2 x2 | x2 (_A,B,) x4 | x2 F,2 x G,2 x | C6 C,2 | F,2 C,2 x C,2 x | x8 | x8 | x6 |] %17

